assets/Mobile phone off/Flat/mobile_phone_off_flat.svg

<svg width="32" height="32" viewBox="0 0 32 32" fill="none" xmlns="http://www.w3.org/2000/svg">
<path d="M2 6C2 3.79086 3.79086 2 6 2H26C28.2091 2 30 3.79086 30 6V26C30 28.2091 28.2091 30 26 30H6C3.79086 30 2 28.2091 2 26V6Z" fill="#FF9F2E"/>
<path d="M5 9C5 7.89543 5.89543 7 7 7H15C16.1046 7 17 7.89543 17 9V12.0578C17 12.1677 16.8664 12.2261 16.781 12.157C16.4239 11.8678 16.0107 11.6452 15.5602 11.508C15.5064 11.4917 15.4688 11.4426 15.4688 11.3863V9.84375C15.4688 9.70568 15.3568 9.59375 15.2188 9.59375H6.84375C6.70568 9.59375 6.59375 9.70568 6.59375 9.84375V22.1875C6.59375 22.3256 6.70568 22.4375 6.84375 22.4375H15.2188C15.3568 22.4375 15.4688 22.3256 15.4688 22.1875V20.2309C15.4688 20.1746 15.5064 20.1255 15.5602 20.1091C16.0107 19.972 16.4239 19.7494 16.781 19.4602C16.8664 19.3911 17 19.4495 17 19.5594V23C17 24.1046 16.1046 25 15 25H7C5.89543 25 5 24.1046 5 23V9Z" fill="white"/>
<path d="M14.5039 12.6016C13.1944 12.6016 12.1328 13.6631 12.1328 14.9727V16.6445C12.1328 17.9541 13.1944 19.0156 14.5039 19.0156C15.8134 19.0156 16.875 17.9541 16.875 16.6445V14.9727C16.875 13.6631 15.8134 12.6016 14.5039 12.6016ZM13.1328 14.9727C13.1328 14.2154 13.7467 13.6016 14.5039 13.6016C15.2611 13.6016 15.875 14.2154 15.875 14.9727V16.6445C15.875 17.4018 15.2611 18.0156 14.5039 18.0156C13.7467 18.0156 13.1328 17.4018 13.1328 16.6445V14.9727Z" fill="white"/>
<path d="M17.9531 13.1953C17.9531 12.9192 18.177 12.6953 18.4531 12.6953H21.5312C21.8074 12.6953 22.0312 12.9192 22.0312 13.1953C22.0312 13.4715 21.8074 13.6953 21.5312 13.6953H18.9531V15.2891H21.4141C21.6902 15.2891 21.9141 15.5129 21.9141 15.7891C21.9141 16.0652 21.6902 16.2891 21.4141 16.2891H18.9531V18.5312C18.9531 18.8074 18.7293 19.0312 18.4531 19.0312C18.177 19.0312 17.9531 18.8074 17.9531 18.5312V13.1953Z" fill="white"/>
<path d="M23.4766 12.6953C23.2004 12.6953 22.9766 12.9192 22.9766 13.1953V18.5234C22.9766 18.7996 23.2004 19.0234 23.4766 19.0234C23.7527 19.0234 23.9766 18.7996 23.9766 18.5234V16.2891H26.4375C26.7136 16.2891 26.9375 16.0652 26.9375 15.7891C26.9375 15.5129 26.7136 15.2891 26.4375 15.2891H23.9766V13.6953H26.5547C26.8308 13.6953 27.0547 13.4715 27.0547 13.1953C27.0547 12.9192 26.8308 12.6953 26.5547 12.6953H23.4766Z" fill="white"/>
</svg>

<svg xmlns="http://www.w3.org/2000/svg" width="32" height="32" fill="none"><path fill="#FF9F2E" d="M2 6a4 4 0 0 1 4-4h20a4 4 0 0 1 4 4v20a4 4 0 0 1-4 4H6a4 4 0 0 1-4-4V6Z"/><path fill="#fff" d="M5 9a2 2 0 0 1 2-2h8a2 2 0 0 1 2 2v3.058c0 .11-.134.168-.219.099a3.612 3.612 0 0 0-1.22-.649.128.128 0 0 1-.092-.122V9.844a.25.25 0 0 0-.25-.25H6.844a.25.25 0 0 0-.25.25v12.344c0 .138.112.25.25.25h8.375a.25.25 0 0 0 .25-.25V20.23c0-.056.037-.106.091-.122a3.61 3.61 0 0 0 1.221-.649c.085-.069.219-.01.219.1V23a2 2 0 0 1-2 2H7a2 2 0 0 1-2-2V9Z"/><path fill="#fff" d="M14.504 12.602a2.371 2.371 0 0 0-2.371 2.37v1.673a2.371 2.371 0 1 0 4.742 0v-1.672a2.371 2.371 0 0 0-2.371-2.371Zm-1.371 2.37a1.371 1.371 0 1 1 2.742 0v1.673a1.371 1.371 0 1 1-2.742 0v-1.672ZM17.953 13.195a.5.5 0 0 1 .5-.5h3.078a.5.5 0 1 1 0 1h-2.578v1.594h2.461a.5.5 0 1 1 0 1h-2.46v2.242a.5.5 0 1 1-1 0v-5.336ZM23.477 12.695a.5.5 0 0 0-.5.5v5.328a.5.5 0 1 0 1 0V16.29h2.46a.5.5 0 0 0 0-1h-2.46v-1.594h2.578a.5.5 0 1 0 0-1h-3.078Z"/></svg>
